src/resources/svg/icons/close.svg

<svg fill="none" viewBox="0 0 12 16" xmlns="http://www.w3.org/2000/svg">
    <path d="m8.2518 8 3.1272-3.1272c0.3838-0.38375 0.3838-1.0059 0-1.39l-0.695-0.695c-0.3837-0.38375-1.0059-0.38375-1.39 0l-3.1272 3.1272-3.1272-3.1272c-0.38375-0.38375-1.0059-0.38375-1.39 0l-0.695 0.695c-0.38375 0.38375-0.38375 1.0059 0 1.39l3.1272 3.1272-3.1272 3.1272c-0.38375 0.3837-0.38375 1.0059 0 1.39l0.695 0.695c0.38375 0.3837 1.0062 0.3837 1.39 0l3.1272-3.1272 3.1272 3.1272c0.38375 0.3837 1.0063 0.3837 1.39 0l0.695-0.695c0.3838-0.3838 0.3838-1.0059 0-1.39l-3.1272-3.1272z" fill="currentColor"/>
</svg>

<svg width="12" height="16" viewBox="0 0 12 16" fill="none" xmlns="http://www.w3.org/2000/svg">
    <g>
        <path fill="currentColor"
              d="M8.25175 8L11.3789 4.87281C11.7627 4.48906 11.7627 3.86687 11.3789 3.48281L10.6839 2.78781C10.3002 2.40406 9.678 2.40406 9.29394 2.78781L6.16675 5.915L3.03956 2.78781C2.65581 2.40406 2.03362 2.40406 1.64956 2.78781L0.954561 3.48281C0.570811 3.86656 0.570811 4.48875 0.954561 4.87281L4.08175 8L0.954561 11.1272C0.570811 11.5109 0.570811 12.1331 0.954561 12.5172L1.64956 13.2122C2.03331 13.5959 2.65581 13.5959 3.03956 13.2122L6.16675 10.085L9.29394 13.2122C9.67769 13.5959 10.3002 13.5959 10.6839 13.2122L11.3789 12.5172C11.7627 12.1334 11.7627 11.5113 11.3789 11.1272L8.25175 8Z"/>
    </g>
</svg>
